X:1
T:Title
L:1/8
Q:1/4=100
M:4/4
K:Ab
V:1 treble nm="Grand Piano"
V:1
 C2 CD E2 DC | F3 G/F/ E4 | E2 EF G2 AG | F8 | E2 EF G2 FE | E4 D4 | D4 EDDC | C8 | A2 AG A2 AG | %9
w: ????~???? * * * * *|||||||||
 A3 G BAGF | G2 GF G3 F | G3 F AGFE | F2 FE F3 E | F2 FE GFED | C3 D E2 DC | F4 E3 E | %16
w: |||||||
 E2 DC B,2 D2 | C8 | c4 c3 c | ddcd c2 B2 | B4 B3 B | d2 Bd d2 c2 | c4 c3 c | ddcd c2 B2 | %24
w: ||||||||
 B4 B3 B | d2 Bd d2 cB | A3 A G3 G | F3 G/F/ E3 B | B3 A G2 FA | G6- GB | B3 c d2 Bd | c3 B cBAG | %32
w: ||||||||
 A4 A3 A | BBAB A2 G2 | G4 G3 G | A2 GA G2 FG | A4 A3 A | BBAB A2 G2 | G4 G3 G | A2 GA G2 FF | %40
w: ||||||||
 C3 D E2 DC | F4 E3 E | E2 DC B,2 D2 | C8 |] %44
w: ||||

